!!!!SEGMENT: pl-sa--552-a-ix-32--034_anonim--mazur.krn
!!!cenid: 18xx:545
!!!COM: Anonim
!!!COM-rismID: pe30004985
!!!CDT:
!!!CNT:
!!!OTL: Mazur
!!!PDT:
!!!AGN: Secular; Mazurka
!!!SMS-siglum: PL-SA
!!!SMS-shelfmark: 552/A IX 32
!!!SMS-shelfwork: 034 W
!!!SMS-variant:
!!!SMS-altvar:
!!!NIFC-rismSourceID: 1001069576
!!!NIFC-rismChildID: 1001069576
!!!NIFC-islandoraID: none
!!!URL-pdf-islandora:
!!!URL-scan: https://bc.bdsandomierz.pl/dlibra/publication/1308/edition/1276/content @EN{Scan in the Sandomierz Diocese Digital Library} @PL{Skany w portalu Cyfrowa Biblioteka Diecezjalna w Sandomierzu}
!!!ONB-nifc: Str. 18, s. 1-2
!!!AIN: 1 piano
!!!key:
**kern	**kern	**dynam
*part1	*part1	*part1
*staff2	*staff1	*
*Ipiano	*Iempty	*
*I"Piano	*	*
*I'P-no	*	*
*clefF4	*clefG2	*
*k[f#c#]	*k[f#c#]	*
*b:	*b:	*
*M3/8	*M3/8	*
*>[A,A,B,B,C,C,A,B]	*>[A,A,B,B,C,C,A,B]	*
=1	=1	=1
*>A	*>A	*
!LO:TX:a:t=P::problem=omyłkowo wpisany klucz F3 zamiast F4&colon; global	!LO:TX:a:i:t=Mazur	!
8DL 8DD/	4.r	f
8A 8F# 8D\	.	.
8AJ 8F# 8D\	.	.
=2	=2	=2
*tremolo	*	*
8A 8F# 8D\L	4.r	.
8A 8F# 8D\	.	.
8A 8F# 8D\J	.	.
=3	=3	=3
*rep	*	*
.	8qa/	.
8A 8F# 8D\L	8.aa\L	.
8A 8F# 8D\	.	.
.	16gg#X\L	.
8A 8F# 8D\J	16aa\	.
.	16ff#\JJ	.
*Xrep	*	*
=4	=4	=4
*rep	*	*
8A 8F# 8D\L	16dd\LL	.
.	16ff#\	.
8A 8F# 8D\	16aa\	.
.	16gg#X\	.
8A 8F# 8D\J	16aa\	.
.	16bb\JJ	.
*Xrep	*	*
=5	=5	=5
8A 8E 8AA\L	16.ggn\LL	.
.	32ee\JJk	.
!	!LO:TX:a:t=P:problem=skeślona belka	!
8A 8E 8AA\	8cc#\L	.
8A 8E 8AA\J	16cc#\L	.
.	16ee\JJ	.
=6	=6	=6
8A 8F# 8D\L	16gg\LL	.
.	16ff#\JJ	.
8A 8F# 8D\	8dd\L	.
8A 8F# 8D\J	16dd\L	.
.	16ff#\JJ	.
=7	=7	=7
*rep	*	*
8A 8F# 8D\L	8.aa\L	.
8A 8F# 8D\	.	.
.	16gg#X\L	.
8A 8F# 8D\J	16aa\	.
.	16ff#\JJ	.
*Xrep	*	*
=8	=8	=8
*rep	*	*
8A 8F# 8D\L	16dd\LL	.
.	16ff#\	.
8A 8F# 8D\	16aa\	.
.	16gg#X\	.
8A 8F# 8D\J	16aa\	.
.	16bb\JJ	.
*Xrep	*	*
=9	=9	=9
8A 8E 8AA\L	16.ggn\LL	.
.	32ee\JJk	.
8A 8E 8AA\	8cc#\L	.
8A 8E 8AA\J	16cc#\L	.
.	16ee\JJ	.
=10	=10	=10
8A 8F# 8D\	16gg\LL	.
.	16ff#\JJ	.
4A 4F# 4D\	4dd\	.
=11:|!|:	=11:|!|:	=11:|!|:
*>B	*>B	*
!LO:N:vis=16.	!	!
8c#L 8A\	16a\LL	.
.	16cc#\JJ	.
!LO:N:vis=16.	!	!
8e\J	8ee\L	.
16BLL 16E\	16dd\L	.
16e\JJ	16b\JJ	.
=12	=12	=12
!LO:N:vis=16.	!	!
8c#L 8A\	16a\LL	.
.	16cc#\	.
!LO:N:vis=16.	!	!
8e\J	16ee\	.
.	16aa\	.
8ryy	16ccc#\	.
.	16eee\JJ	.
!!LO:LB:g=original
=13	=13	=13
!LO:N:vis=16	!	!
8c#L 8A\	16aa\LL	.
.	16ccc#\JJ	.
!LO:N:vis=16	!	!
8e\J	8ee\L	.
16BLL 16E\	16dd\L	.
16e\JJ	16b\JJ	.
=14	=14	=14
!LO:N:vis=16.	!	!
8c#L 8A\	8a/	.
.	8qgg#X/	.
!LO:N:vis=16.	!	!
8e\J	4aa\	.
!	!LO:TX:b:t=du commencement	!
8ryy	.	.
=15:|!|:	=15:|!|:	=15:|!|:
*>C	*>C	*
*clefF4	*clefG2	*
8f# 8d 8B\L	16ff#\LL	.
.	16ee\	.
8f# 8d 8B\	16dd\	.
.	16cc#\J	.
8f# 8d 8B\J	8b\J	.
=16	=16	=16
8e 8B 8E\L	16aa\LL	.
.	16gg\	.
8e 8B 8E\	16ff#\	.
.	16gg\J	.
8e 8B 8E\J	8ee\J	.
=17	=17	=17
8e 8c# 8A#X 8F#\L	16ccc#\LL	.
.	16bb\	.
8e 8c# 8A#X 8F#\	16aa#X\	.
.	16bbn\	.
8e 8c# 8A#X 8F#\J	16ff#\	.
.	16ee\JJ	.
=18	=18	=18
.	8qee/	.
8d 8B\L	16dd\LL	.
.	16cc#\	.
8d 8B\	16b\	.
.	16cc#\	.
8d 8B\J	16dd\	.
.	16ee\JJ	.
=19	=19	=19
8f# 8d 8B\L	16ff#\LL	.
.	16ee\	.
8f# 8d 8B\	16dd\	.
.	16cc#\J	.
8f# 8d 8B\J	8b\J	.
=20	=20	=20
8e 8B 8E\L	16aa\LL	.
.	16gg\	.
8e 8B 8E\	16ff#\	.
.	16gg\J	.
8e 8B 8E\J	8ee\J	.
=21	=21	=21
8e 8c# 8A#X 8F#\L	16ccc#\LL	.
.	16bb\	.
8e 8c# 8A#X 8F#\	16aa#X\	.
.	16ccc#\	.
8e 8c# 8A#X 8F#\J	16eee\	.
.	16aa#\JJ	.
*Xtremolo	*	*
=22	=22	=22
!LO:TX:b:t=P:problem=chorądiewka ósemki jak tremolo	!	!
8d 8B\	16ccc#\LL	.
.	16bb\JJ	.
!	!LO:TX:b:i:t=Da Capo	!
4d 4B\	4bb\	.
=:|!|:	=:|!|:	=:|!|:
*-	*-	*-
!!!system-decoration: {s1,s2}
!!!ENC: Marta Lawrence
!!!END: 2020-12-13
!!!ENC: Marcin Jachim
!!!END: 2020-06-18
!!!YEC: Copyright 2022 Narodowy Instytut Fryderyka Chopina (https://polishscores.org)
!!!YEM: License CC-BY-4.0 (https://creativecommons.org/licenses/by/4.0)
